X: 16286
T: Grier's
R: hornpipe
M: 4/4
K: Cmajor
f|c'f ef/g/ eccd|cGGF EC C2|EGce agfe|dcde cAAg|
c'g ef/g/ eccd|cGGF EC C2|EGce agfe|dcde A4||
GEGB AFAc|BG Bc/d/ BG G2|cGce dGeg|agfe ed d2|
GF/E/ GB AFAc|BG Bc/d/ BG G2|c2 c'b agfe|dcde c4||

